X:5830
T:Schottische. GHW.043
O:england
M:2/4
L:1/16
Q:80
S:George H.Watson,MS,Swanton Abbott,Norfolk,1850-1880
R:Schottische
A:Norfolk
N:Pause mark at end of A part. Last of B written as three crotchets ,
N:crothcet rest in MS. Transcribed as quavers to fit time signature
K:D
f2A2d2A2|B2A2 A^GAB|c2A2 Acef|e2d2 dcde|
f2A2d2A2|B2A2 A^GAB|c2A2 Acef|e2d2d2:|
|:(gf)(fe) e2d2|DEFG (B2A2)|gfe2 Ace2|dcde f2a2|
(gf)(fe) e2d2|DEFG B2A2|gfe2 Ace2|d2d2d2z2:|
K:A
|:e|e2c2 Acea|g2f2d2 z d|d2B2 GBdf|f2e2c2 z e|
e2c2 Acea|g2f2d2 z d|d2B2 GBfe|A2A2A2z2:|


